media/gatsby-plus-prismic.svg

<svg height="600" viewBox="0 0 600 600" width="600" xmlns="http://www.w3.org/2000/svg"><g fill="none"><g transform="translate(388.362125 225.5)"><path d="m129.663111 4.97494445c5.988281 3.17893993 10.882556 8.08475115 14.047389 14.08050005 3.24075 6.07175 4.966666 12.0938333 4.966666 28.6949166v29.1584724c0 .3764008-.227218.7155917-.574986.8595898-.347768.1439974-.748025.0644838-1.014346-.2015068v-.0041389l-10.98875-11.0094441c-.872577-.8743279-1.362349-2.0593074-1.361695-3.2945559v-13.4762221c0-12.4539166-1.295473-16.9694444-3.725-21.5222221-2.374558-4.4963065-6.045972-8.1749302-10.537611-10.5583056-4.492568-2.4121444-8.952718-3.7058782-21.0828118-3.7328473l-18.1662715-.0004305c-.3756488-.0019949-.7133154-.2294932-.8562541-.5768892-.1429393-.3473961-.063158-.746657.2023094-1.0124442l10.98875-11.01358326c.8691665-.87330556 2.0528888-1.36583334 3.2862776-1.36583334h6.1793614c16.567972 0 22.577639 1.73005555 28.636972 4.97494445zm-22.801139 18.30630555c10.264444 0 18.583612 8.3398611 18.583612 18.625v11.7916945c-.001805.3715243-.224268.7064291-.566035.8521299-.341768.1457008-.737439.0746913-1.006744-.1816299l-14.982777-14.3536667c-.993333-.9933333-2.152223-1.7135-3.38975-2.1646389-1.049953-.3977355-2.163517-.6010942-3.286278-.6001389h-44.2281666c-.3764009-.0003311-.7155921-.2272188-.8595897-.5749866s-.0644839-.7480256.2015063-1.0143468l11.0053053-11.0177221c.8691671-.8691667 2.04875-1.3616945 3.2821394-1.3616945z" fill="#e55638"/><path d="m136.322584 80.7497224 10.992888 11.0135829c.869167.8733059 1.361694 2.0611671 1.361694 3.2945559v6.1959168c0 16.601083-1.725916 22.623167-4.966666 28.694917-3.164833 5.995748-8.059108 10.90156-14.047389 14.0805-6.059333 3.24075-12.069 4.970805-28.636972 4.970805h-29.0922502c-.3756482-.001995-.7133148-.229493-.8562541-.576889-.1429387-.347396-.0631574-.746657.20231-1.012445v.004139l10.98875-11.013583c.8691665-.873306 2.0528888-1.365833 3.2862777-1.365833h13.44725c12.4249436 0 16.9280556-1.295473 21.4725556-3.733278 4.491639-2.383375 8.163053-6.061999 10.537611-10.558306 2.429527-4.552777 3.725-9.068305 3.725-21.5222215v-17.8137782c.001977-.374593.22821-.7115379.57418-.8551651.34597-.1436267.744321-.0659744 1.011015.1970822zm-23.227445-23.285389 10.992889 11.0260001c.869167.8733053 1.357556 2.0570277 1.357556 3.2945553v35.3212772c0 10.285139-8.319168 18.625-18.583612 18.625h-11.7668608c-.3715245-.001803-.7064294-.224267-.8521299-.566034-.145701-.341767-.0746914-.737438.1816299-1.006743v-.004139l14.3205548-15.020028c.993334-.993333 1.7135-2.152222 2.164639-3.393888.395575-1.051861.597496-2.166635.596-3.290418v-44.3274994c.000331-.3764008.227219-.715592.574987-.8595896s.748026-.0644838 1.014347.2015064z" fill="#f4c942"/><path d="m1.58519445 71.4330835 10.99702775 11.013583c.8691667.8733059 1.3616944 2.061167 1.3616944 3.2945559v13.4762223c0 12.4539163 1.2913334 16.9694443 3.725 21.5222213 2.3734598 4.495708 6.0433662 8.174267 10.5334723 10.558306 4.5445 2.437806 9.05175 3.733278 21.4766945 3.733278h17.772389c.3771545-.001347.7178802.224926.8629404.573071.1450603.348145.065808.749409-.2007181 1.016263l-10.9970281 11.013582c-.8691666.873306-2.0528888 1.365834-3.2821388 1.365834h-6.1835c-16.5679723 0-22.5735-1.730055-28.6328333-4.974945-5.9898142-3.178275-10.88559628-8.084152-14.05152784-14.0805-3.2083425-6.011032-4.93199684-11.973386-4.96666666-28.200046v-29.6533425c.00197692-.374593.22821046-.7115379.57418043-.8551652.34596997-.1436272.74432086-.0659744 1.01101402.1970822zm23.21916665 23.1984718h-.0041389l14.9910556 14.3536667c.9891944.993333 2.1522222 1.7135 3.3856111 2.164639 1.0181666.389055 2.1273889.600139 3.2862777.600139h44.2281669c.3756482.001995.7133148.229493.8562541.576889.1429388.347396.0631574.746657-.20231 1.012445l-11.0011664 11.017721c-.8691665.869167-2.0528888 1.361695-3.2821388 1.361695h-35.2467779c-4.9341696-.005486-9.664069-1.970839-13.1491728-5.463705-3.4851038-3.492865-5.4399299-8.227126-5.4344614-13.161295v-11.7916947c.0018271-.3715239.2242906-.7064288.5660578-.8521298.3417673-.1457005.7374383-.0746912 1.006743.1816298z" fill="#7b8fea"/><path d="m53.5820555 23.28125c.3715244.0018041.7064292.2242675.85213.5660348s.0746913.7374383-.18163 1.006743l-14.3246944 15.0241667c-.9933333.9933333-1.7093611 2.1522221-2.1605 3.3938889-.3969866 1.0515982-.6003117 2.1663804-.6001389 3.2904166v44.3275c-.0036224.3738416-.2304618.7092767-.5760678.8518505-.3456061.1425738-.7429719.0646438-1.0091266-.1979058l-10.9928889-11.026c-.8700462-.8739886-1.3582121-2.0571953-1.3575569-3.2904171v-35.3212776c0-10.2851389 8.319168-18.625 18.5836125-18.625zm23.1612221-23.28125c.3756483.00199484.7133154.22949315.8562542.57688922.1429393.34739608.0631573.746657-.2023094 1.01244412l-10.98875 11.01358326c-.8733059.8733056-2.0528889 1.3658334-3.2862777 1.3658334h-13.4472502c-12.4249445 0-16.9321945 1.2954722-21.4766945 3.7332778-4.491639 2.3833754-8.1630525 6.0619991-10.5376111 10.5583056-2.4039538 4.5048537-3.6976012 8.9732376-3.7245695 21.1315701l-.0004305 18.20443c-.0019769.374593-.2282105.7115379-.5741804.8551652-.34597.1436272-.7443209.0659744-1.011014-.1970822l-10.98461116-11.0135831c-.87409435-.8736504-1.36583334-2.0587135-1.36583334-3.2945556v-6.1959167c0-16.6010833 1.72591666-22.6231666 4.96666666-28.6949166 3.1648328-5.9957489 8.05910764-10.90156012 14.04738884-14.08050005 5.99874-3.21244 11.9488017-4.94019186 28.139074-4.97494445z" fill="#d97ee8"/></g><g fill="#232129" transform="translate(282.960708 280)"><rect height="8" rx="2" width="40" y="16"/><rect height="8" rx="2" transform="matrix(0 1 -1 0 40 0)" width="40" y="16"/></g><g transform="translate(62.960708 220)"><path d="m142.857 80h-40v11.429h27.429c-4 17.142-16.572 31.428-33.143 37.142l-65.715-65.714c6.858-20 26.286-34.286 48.572-34.286 17.143 0 32.571 8.572 42.286 21.715l8.571-7.429c-11.429-15.427-29.714-25.714-50.857-25.714-29.714 0-54.857 21.143-61.143 49.143l75.429 75.428c27.428-6.857 48.571-32 48.571-61.714zm-125.714.572c0 16 6.286 31.428 18.286 43.428s28 18.286 43.428 18.286z" fill="#fff"/><path d="m80 0c-44 0-80 36-80 80s36 80 80 80 80-36 80-80-36-80-80-80zm-44.571 124.571c-12-12-18.286-28-18.286-43.428l62.286 61.714c-16-.571-32-6.286-44-18.286zm58.285 16.572-74.857-74.857c6.286-28 31.429-49.143 61.143-49.143 21.143 0 39.429 10.286 50.857 25.714l-8.571 7.429c-9.715-13.143-25.143-21.716-42.286-21.716-22.286 0-41.143 14.286-48.571 34.286l65.714 65.714c16.571-5.714 29.143-20 33.143-37.142h-27.429v-11.428h40c0 29.714-21.143 54.857-49.143 61.143z" fill="#639"/></g></g></svg>

<?xml version="1.0" encoding="UTF-8"?>
<svg width="600px" height="600px" viewBox="0 0 600 600" version="1.1" xmlns="http://www.w3.org/2000/svg" xmlns:xlink="http://www.w3.org/1999/xlink">
    <title>Artboard</title>
    <g id="Artboard" stroke="none" stroke-width="1" fill="none" fill-rule="evenodd">
        <g id="Group" transform="translate(62.960708, 220.000000)" fill-rule="nonzero">
            <g id="prismic" transform="translate(325.401417, 5.500000)">
                <path d="M129.663111,4.97494445 C135.651392,8.15388438 140.545667,13.0596956 143.7105,19.0554445 C146.95125,25.1271945 148.677166,31.1492778 148.677166,47.7503611 L148.677166,76.9088335 C148.677166,77.2852343 148.449948,77.6244252 148.10218,77.7684233 C147.754412,77.9124207 147.354155,77.8329071 147.087834,77.5669165 L147.087834,77.5627776 L136.099084,66.5533335 C135.226507,65.6790056 134.736735,64.4940261 134.737389,63.2587776 L134.737389,49.7825555 C134.737389,37.3286389 133.441916,32.8131111 131.012389,28.2603334 C128.637831,23.7640269 124.966417,20.0854032 120.474778,17.7020278 C115.98221,15.2898834 111.52206,13.9961496 99.3919662,13.9691805 L81.2256947,13.96875 C80.8500459,13.9667551 80.5123793,13.7392568 80.3694406,13.3918608 C80.2265013,13.0444647 80.3062826,12.6452038 80.57175,12.3794166 L91.5605,1.36583334 C92.4296665,0.492527778 93.6133888,4.35085757e-14 94.8467776,4.35085757e-14 L101.026139,4.35085757e-14 C117.594111,4.35085757e-14 123.603778,1.73005555 129.663111,4.97494445 Z M106.861972,23.28125 C117.126416,23.28125 125.445584,31.6211111 125.445584,41.90625 L125.445584,53.6979445 C125.443779,54.0694688 125.221316,54.4043736 124.879549,54.5500744 C124.537781,54.6957752 124.14211,54.6247657 123.872805,54.3684445 L108.890028,40.0147778 C107.896695,39.0214445 106.737805,38.3012778 105.500278,37.8501389 C104.450325,37.4524034 103.336761,37.2490447 102.214,37.25 L57.9858334,37.25 C57.6094325,37.2496689 57.2702413,37.0227812 57.1262437,36.6750134 C56.9822461,36.3272456 57.0617598,35.9269878 57.32775,35.6606666 L68.3330553,24.6429445 C69.2022224,23.7737778 70.3818053,23.28125 71.6151947,23.28125 L106.861972,23.28125 Z" id="Shape" fill="#E55638"></path>
                <path d="M136.322584,80.7497224 L147.315472,91.7633053 C148.184639,92.6366112 148.677166,93.8244724 148.677166,95.0578612 L148.677166,101.253778 C148.677166,117.854861 146.95125,123.876945 143.7105,129.948695 C140.545667,135.944443 135.651392,140.850255 129.663111,144.029195 C123.603778,147.269945 117.594111,149 101.026139,149 L71.9338888,149 C71.5582406,148.998005 71.220574,148.770507 71.0776347,148.423111 C70.934696,148.075715 71.0144773,147.676454 71.2799447,147.410666 L71.2799447,147.414805 L82.2686947,136.401222 C83.1378612,135.527916 84.3215835,135.035389 85.5549724,135.035389 L99.0022224,135.035389 C111.427166,135.035389 115.930278,133.739916 120.474778,131.302111 C124.966417,128.918736 128.637831,125.240112 131.012389,120.743805 C133.441916,116.191028 134.737389,111.6755 134.737389,99.2215835 L134.737389,81.4078053 C134.739366,81.0332123 134.965599,80.6962674 135.311569,80.5526402 C135.657539,80.4090135 136.05589,80.4866658 136.322584,80.7497224 Z M113.095139,57.4643334 L124.088028,68.4903335 C124.957195,69.3636388 125.445584,70.5473612 125.445584,71.7848888 L125.445584,107.106166 C125.445584,117.391305 117.126416,125.731166 106.861972,125.731166 L95.0951112,125.731166 C94.7235867,125.729363 94.3886818,125.506899 94.2429813,125.165132 C94.0972803,124.823365 94.1682899,124.427694 94.4246112,124.158389 L94.4246112,124.15425 L108.745166,109.134222 C109.7385,108.140889 110.458666,106.982 110.909805,105.740334 C111.30538,104.688473 111.507301,103.573699 111.505805,102.449916 L111.505805,58.1224166 C111.506136,57.7460158 111.733024,57.4068246 112.080792,57.262827 C112.42856,57.1188294 112.828818,57.1983432 113.095139,57.4643334 Z" id="Shape" fill="#F4C942"></path>
                <path d="M1.58519445,71.4330835 L12.5822222,82.4466665 C13.4513889,83.3199724 13.9439166,84.5078335 13.9439166,85.7412224 L13.9439166,99.2174447 C13.9439166,111.671361 15.23525,116.186889 17.6689166,120.739666 C20.0423764,125.235374 23.7122828,128.913933 28.2023889,131.297972 C32.7468889,133.735778 37.2541389,135.03125 49.6790834,135.03125 L67.4514724,135.03125 C67.8286269,135.029903 68.1693526,135.256176 68.3144128,135.604321 C68.4594731,135.952466 68.3802208,136.35373 68.1136947,136.620584 L57.1166666,147.634166 C56.2475,148.507472 55.0637778,149 53.8345278,149 L47.6510278,149 C31.0830555,149 25.0775278,147.269945 19.0181945,144.025055 C13.0283803,140.84678 8.13259822,135.940903 4.96666666,129.944555 C1.75832416,123.933523 0.0346698166,117.971169 0,101.744509 L0,72.0911665 C0.00197691597,71.7165735 0.228210464,71.3796286 0.574180432,71.2360013 C0.920150402,71.0923741 1.31850129,71.1700269 1.58519445,71.4330835 Z M24.8043611,94.6315553 L24.8002222,94.6315553 L39.7912778,108.985222 C40.7804722,109.978555 41.9435,110.698722 43.1768889,111.149861 C44.1950555,111.538916 45.3042778,111.75 46.4631666,111.75 L90.6913335,111.75 C91.0669817,111.751995 91.4046483,111.979493 91.5475876,112.326889 C91.6905264,112.674285 91.610745,113.073546 91.3452776,113.339334 L80.3441112,124.357055 C79.4749447,125.226222 78.2912224,125.71875 77.0619724,125.71875 L41.8151945,125.71875 C36.8810249,125.713264 32.1511255,123.747911 28.6660217,120.255045 C25.1809179,116.76218 23.2260918,112.027919 23.2315603,107.09375 L23.2315603,95.3020553 C23.2333874,94.9305314 23.4558509,94.5956265 23.7976181,94.4499255 C24.1393854,94.304225 24.5350564,94.3752343 24.8043611,94.6315553 Z" id="Shape" fill="#7B8FEA"></path>
                <path d="M53.5820555,23.28125 C53.9535799,23.2830541 54.2884847,23.5055175 54.4341855,23.8472848 C54.5798863,24.1890521 54.5088768,24.5847231 54.2525555,24.8540278 L39.9278611,39.8781945 C38.9345278,40.8715278 38.2185,42.0304166 37.7673611,43.2720834 C37.3703745,44.3236816 37.1670494,45.4384638 37.1672222,46.5625 L37.1672222,90.89 C37.1635998,91.2638416 36.9367604,91.5992767 36.5911544,91.7418505 C36.2455483,91.8844243 35.8481825,91.8064943 35.5820278,91.5439447 L24.5891389,80.5179447 C23.7190927,79.6439561 23.2309268,78.4607494 23.231582,77.2275276 L23.231582,41.90625 C23.231582,31.6211111 31.55075,23.28125 41.8151945,23.28125 L53.5820555,23.28125 Z M76.7432776,0 C77.1189259,0.00199483951 77.456593,0.229493149 77.5995318,0.576889223 C77.7424711,0.924285298 77.6626891,1.32354622 77.3972224,1.58933334 L66.4084724,12.6029166 C65.5351665,13.4762222 64.3555835,13.96875 63.1221947,13.96875 L49.6749445,13.96875 C37.25,13.96875 32.74275,15.2642222 28.19825,17.7020278 C23.706611,20.0854032 20.0351975,23.7640269 17.6606389,28.2603334 C15.2566851,32.7651871 13.9630377,37.233571 13.9360694,49.3919035 L13.9356389,67.5963335 C13.933662,67.9709265 13.7074284,68.3078714 13.3614585,68.4514987 C13.0154885,68.5951259 12.6171376,68.5174731 12.3504445,68.2544165 L1.36583334,57.2408334 C0.491738988,56.367183 0,55.1821199 0,53.9462778 L0,47.7503611 C0,31.1492778 1.72591666,25.1271945 4.96666666,19.0554445 C8.13149946,13.0596956 13.0257743,8.15388438 19.0140555,4.97494445 C25.0127955,1.76250445 30.9628572,0.0347525945 47.1531295,0 L76.7432776,0 Z" id="Shape" fill="#D97EE8"></path>
            </g>
            <g id="plus" transform="translate(220.000000, 60.000000)" fill="#232129">
                <rect id="Rectangle" x="0" y="16" width="40" height="8" rx="2"></rect>
                <rect id="Rectangle" transform="translate(20.000000, 20.000000) rotate(90.000000) translate(-20.000000, -20.000000) " x="0" y="16" width="40" height="8" rx="2"></rect>
            </g>
            <g id="gatsby">
                <path d="M142.857,80 L102.857,80 L102.857,91.429 L130.286,91.429 C126.286,108.571 113.714,122.857 97.143,128.571 L31.428,62.857 C38.286,42.857 57.714,28.571 80,28.571 C97.143,28.571 112.571,37.143 122.286,50.286 L130.857,42.857 C119.428,27.43 101.143,17.143 80,17.143 C50.286,17.143 25.143,38.286 18.857,66.286 L94.286,141.714 C121.714,134.857 142.857,109.714 142.857,80 Z M17.143,80.572 C17.143,96.572 23.429,112 35.429,124 C47.429,136 63.429,142.286 78.857,142.286 L17.143,80.572 Z" id="Shape" fill="#FFFFFF"></path>
                <path d="M80,0 C36,0 0,36 0,80 C0,124 36,160 80,160 C124,160 160,124 160,80 C160,36 124,0 80,0 Z M35.429,124.571 C23.429,112.571 17.143,96.571 17.143,81.143 L79.429,142.857 C63.429,142.286 47.429,136.571 35.429,124.571 Z M93.714,141.143 L18.857,66.286 C25.143,38.286 50.286,17.143 80,17.143 C101.143,17.143 119.429,27.429 130.857,42.857 L122.286,50.286 C112.571,37.143 97.143,28.57 80,28.57 C57.714,28.57 38.857,42.856 31.429,62.856 L97.143,128.57 C113.714,122.856 126.286,108.57 130.286,91.428 L102.857,91.428 L102.857,80 L142.857,80 C142.857,109.714 121.714,134.857 93.714,141.143 Z" id="Shape" fill="#663399"></path>
            </g>
        </g>
    </g>
</svg>
